X:823
T:Arkansas Traveller
S:Sessions, records, etc
Z:Nigel Gatherer
M:4/4
L:1/8
K:D
A2 | dfed B2 B2 | A2 A2 d3  d | e2 e2 f2 f2 | efed B2 A2  |
     dfed B2 B2 | A2 A2 d4    | dcdA  BdAG  | FAEA D2    :|
fg | agfa gfeg  | fedf  ec A2 | d2 d2 efge  | fedf e2
fg | agfa gfeg  | fedf  ec A2 | dcdA  BdAG  | FAEA D2    :|
